Newaita/actions/22/view-private.svg

<svg height="22" viewBox="0 0 22 22" width="22" xmlns="http://www.w3.org/2000/svg"><g fill="#424242"><path d="m6.820312 12.453125c-1.761718 0-3.183593 1.417969-3.183593 3.183594 0 1.761719 1.421875 3.183593 3.183593 3.183593 1.765626 0 3.183594-1.421874 3.183594-3.183593 0-1.765625-1.417968-3.183594-3.183594-3.183594zm0 1.816406c.757813 0 1.367188.609375 1.367188 1.367188 0 .753906-.609375 1.363281-1.367188 1.363281-.753906 0-1.363281-.609375-1.363281-1.363281 0-.757813.609375-1.367188 1.363281-1.367188zm0 0"/><path d="m2.730469 14.269531h1.816406c.503906 0 .910156.410157.910156.910157 0 .503906-.40625.910156-.910156.910156h-1.816406c-.503907 0-.910157-.40625-.910157-.910156 0-.5.40625-.910157.910157-.910157zm0 0"/><path d="m17.28125 14.269531h1.820312c.503907 0 .910157.410157.910157.910157 0 .503906-.40625.910156-.910157.910156h-1.820312c-.5 0-.910156-.40625-.910156-.910156 0-.5.410156-.910157.910156-.910157zm0 0"/><path d="m8.640625 13.816406h4.546875v1.820313h-4.546875zm0 0"/><path d="m15.007812 12.453125c-1.761718 0-3.183593 1.417969-3.183593 3.183594 0 1.761719 1.421875 3.183593 3.183593 3.183593 1.765626 0 3.183594-1.421874 3.183594-3.183593 0-1.765625-1.417968-3.183594-3.183594-3.183594zm0 1.816406c.757813 0 1.363282.609375 1.363282 1.367188 0 .753906-.605469 1.363281-1.363282 1.363281-.753906 0-1.363281-.609375-1.363281-1.363281 0-.757813.609375-1.367188 1.363281-1.367188zm0 0"/><path d="m2.730469 9.722656h16.371093c.503907 0 .910157.40625.910157.910156 0 .5-.40625.910157-.910157.910157h-16.371093c-.503907 0-.910157-.410157-.910157-.910157 0-.503906.40625-.910156.910157-.910156zm0 0"/><path d="m13.636719 3.359375c-.175781 0-.347657.054687-.496094.152344l-2.226563 1.484375-2.226562-1.484375c-.238281-.160157-.542969-.195313-.8125-.097657-.273438.101563-.480469.324219-.558594.601563l-1.820312 6.367187c-.09375.3125-.011719.652344.214844.886719.226562.238281.558593.332031.875.253907.316406-.082032.566406-.328126.652343-.640626l1.476563-5.175781 1.699218 1.128907c.304688.203124.699219.203124 1.003907 0l1.695312-1.128907 1.480469 5.175781c.085938.3125.332031.558594.648438.640626.316406.078124.652343-.015626.878906-.253907.226562-.234375.308594-.574219.210937-.886719l-1.816406-6.367187c-.113281-.390625-.472656-.660156-.878906-.65625zm0 0"/></g></svg>

<svg xmlns="http://www.w3.org/2000/svg" xmlns:xlink="http://www.w3.org/1999/xlink" width="22px" height="22px" viewBox="0 0 22 22" version="1.1">
<g id="surface1">
     <defs>
  <style id="current-color-scheme" type="text/css">
   .ColorScheme-Text { color:#424242; } .ColorScheme-Highlight { color:#eeeeee; }
  </style>
 </defs>
<path style="fill:currentColor" class="ColorScheme-Text" d="M 6.820312 12.453125 C 5.058594 12.453125 3.636719 13.871094 3.636719 15.636719 C 3.636719 17.398438 5.058594 18.820312 6.820312 18.820312 C 8.585938 18.820312 10.003906 17.398438 10.003906 15.636719 C 10.003906 13.871094 8.585938 12.453125 6.820312 12.453125 Z M 6.820312 14.269531 C 7.578125 14.269531 8.1875 14.878906 8.1875 15.636719 C 8.1875 16.390625 7.578125 17 6.820312 17 C 6.066406 17 5.457031 16.390625 5.457031 15.636719 C 5.457031 14.878906 6.066406 14.269531 6.820312 14.269531 Z M 6.820312 14.269531 "/>
     <defs>
  <style id="current-color-scheme" type="text/css">
   .ColorScheme-Text { color:#424242; } .ColorScheme-Highlight { color:#eeeeee; }
  </style>
 </defs>
<path style="fill:currentColor" class="ColorScheme-Text" d="M 2.730469 14.269531 L 4.546875 14.269531 C 5.050781 14.269531 5.457031 14.679688 5.457031 15.179688 C 5.457031 15.683594 5.050781 16.089844 4.546875 16.089844 L 2.730469 16.089844 C 2.226562 16.089844 1.820312 15.683594 1.820312 15.179688 C 1.820312 14.679688 2.226562 14.269531 2.730469 14.269531 Z M 2.730469 14.269531 "/>
     <defs>
  <style id="current-color-scheme" type="text/css">
   .ColorScheme-Text { color:#424242; } .ColorScheme-Highlight { color:#eeeeee; }
  </style>
 </defs>
<path style="fill:currentColor" class="ColorScheme-Text" d="M 17.28125 14.269531 L 19.101562 14.269531 C 19.605469 14.269531 20.011719 14.679688 20.011719 15.179688 C 20.011719 15.683594 19.605469 16.089844 19.101562 16.089844 L 17.28125 16.089844 C 16.78125 16.089844 16.371094 15.683594 16.371094 15.179688 C 16.371094 14.679688 16.78125 14.269531 17.28125 14.269531 Z M 17.28125 14.269531 "/>
     <defs>
  <style id="current-color-scheme" type="text/css">
   .ColorScheme-Text { color:#424242; } .ColorScheme-Highlight { color:#eeeeee; }
  </style>
 </defs>
<path style="fill:currentColor" class="ColorScheme-Text" d="M 8.640625 13.816406 L 13.1875 13.816406 L 13.1875 15.636719 L 8.640625 15.636719 Z M 8.640625 13.816406 "/>
     <defs>
  <style id="current-color-scheme" type="text/css">
   .ColorScheme-Text { color:#424242; } .ColorScheme-Highlight { color:#eeeeee; }
  </style>
 </defs>
<path style="fill:currentColor" class="ColorScheme-Text" d="M 15.007812 12.453125 C 13.246094 12.453125 11.824219 13.871094 11.824219 15.636719 C 11.824219 17.398438 13.246094 18.820312 15.007812 18.820312 C 16.773438 18.820312 18.191406 17.398438 18.191406 15.636719 C 18.191406 13.871094 16.773438 12.453125 15.007812 12.453125 Z M 15.007812 14.269531 C 15.765625 14.269531 16.371094 14.878906 16.371094 15.636719 C 16.371094 16.390625 15.765625 17 15.007812 17 C 14.253906 17 13.644531 16.390625 13.644531 15.636719 C 13.644531 14.878906 14.253906 14.269531 15.007812 14.269531 Z M 15.007812 14.269531 "/>
     <defs>
  <style id="current-color-scheme" type="text/css">
   .ColorScheme-Text { color:#424242; } .ColorScheme-Highlight { color:#eeeeee; }
  </style>
 </defs>
<path style="fill:currentColor" class="ColorScheme-Text" d="M 2.730469 9.722656 L 19.101562 9.722656 C 19.605469 9.722656 20.011719 10.128906 20.011719 10.632812 C 20.011719 11.132812 19.605469 11.542969 19.101562 11.542969 L 2.730469 11.542969 C 2.226562 11.542969 1.820312 11.132812 1.820312 10.632812 C 1.820312 10.128906 2.226562 9.722656 2.730469 9.722656 Z M 2.730469 9.722656 "/>
     <defs>
  <style id="current-color-scheme" type="text/css">
   .ColorScheme-Text { color:#424242; } .ColorScheme-Highlight { color:#eeeeee; }
  </style>
 </defs>
<path style="fill:currentColor" class="ColorScheme-Text" d="M 13.636719 3.359375 C 13.460938 3.359375 13.289062 3.414062 13.140625 3.511719 L 10.914062 4.996094 L 8.6875 3.511719 C 8.449219 3.351562 8.144531 3.316406 7.875 3.414062 C 7.601562 3.515625 7.394531 3.738281 7.316406 4.015625 L 5.496094 10.382812 C 5.402344 10.695312 5.484375 11.035156 5.710938 11.269531 C 5.9375 11.507812 6.269531 11.601562 6.585938 11.523438 C 6.902344 11.441406 7.152344 11.195312 7.238281 10.882812 L 8.714844 5.707031 L 10.414062 6.835938 C 10.71875 7.039062 11.113281 7.039062 11.417969 6.835938 L 13.113281 5.707031 L 14.59375 10.882812 C 14.679688 11.195312 14.925781 11.441406 15.242188 11.523438 C 15.558594 11.601562 15.894531 11.507812 16.121094 11.269531 C 16.347656 11.035156 16.429688 10.695312 16.332031 10.382812 L 14.515625 4.015625 C 14.402344 3.625 14.042969 3.355469 13.636719 3.359375 Z M 13.636719 3.359375 "/>
</g>
</svg>
